X:1
T:Fuller and Warren
M:6/8
L:1/4
K:C
 E/2| C- C/2 E F/2| G G/2 E G/4G/4| c c/2 B d/2| c3/2 C C/2| G G/2 G- G/2|\
 c/2 c A A/2| G3/2 z G/2| c- c/2 B A/2| G3/2 E E/2| C C/2 D E/2| F3/2 F F/2|\
 G- G/2 B A/2| G- G/2 D E/2| C3/2 z/2 z/2||
